X:1
T:Title
%%score { ( 1 2 ) | 3 }
L:1/8
Q:1/4=100
M:4/4
K:F
V:1 treble nm="Grand Piano"
V:2 treble 
V:3 bass 
V:1
 A2 A2 B2 z B, | c2 B2 A4 | [CDA]2 [B,DG]2 G2 F2 | F2 E2 F4 | A2 A2 B2 z B, | c2 B2 A4 | %6
w: Robert~Harkness * * *||||||
 d2 G2 c2 CB, | z2 E2 z4 |] %8
w: ||
V:2
 z4 z2 G2 | x8 | x8 | x8 | z4 z2 G2 | x8 | z4 z2 F2 | F2 z B, F4 |] %8
V:3
 [F,CF]2 [^F,C_E]2[K:treble] [G,C=E]2 [CE]2 | [A,CF]2 [G,CE]2 [F,CF]4 | %2
 B,,2 B,,2 [C,A,C]2 [C,A,C]2 | [C,G,B,]2 [C,B,C]2 [F,A,C]4 | %4
 [F,CF]2 [^F,C_E]2[K:treble] [G,C=E]2 [CE]2 | [A,CF]2 [G,CE]2 [F,CF]4 | %6
 [B,F]2 [B,CE]2 [A,CF]2[K:bass] A,,B,, | [C,A,C]2 .[C,G,C]2 [F,A,C]4 |] %8

